X:108
T:My darling has deceived me
T:Rinn m'eudail mo mhealladh
R:Slow Air
S:Simon Fraser Collection
N:No.174
O:Scottish
M:3/4
L:1/8
Q:1/4=120
K:G
G>G|d3e g2|(d2e) z G>G|d3e g2|(ag2) z f>e|[B2e2][A2c2][G2B2]|
([F2A2] B)z g>e|[B3d3] D G2|(A G2) z G>G|d3eg2|(d2e)z G>G|
d3eg2|ag2 z f>e|[B2d2][A2c2][G2B2]|([F2A2]B) z g>e|[B3d3] D G2|
(A G2) z||d>c|B2g2B2|(A2G)z d>B|c3de2|(a g2)z f>e|[B2e2][A2c2][G2B2]|
([F2A2]B) z g>e|[B3d3] D G2|(A G2) z d>c|B2g2B2|(A2G) z d>B|c3d e2|
(a g2) z f>e|[B2e2][A2c2][G2B2]|[F2A2] Bz g>e|d3D G2|A G2 z||

